svgs/sharp-solid/podium-star.svg

<svg xmlns="http://www.w3.org/2000/svg" viewBox="0 0 448 512"><!--! Font Awesome Pro 6.6.0 by @fontawesome - https://fontawesome.com License - https://fontawesome.com/license (Commercial License) Copyright 2024 Fonticons, Inc. --><path d="M192 0l96 0c26.5 0 48 21.5 48 48s-21.5 48-48 48l-96 0 0-24-24 0c-22.1 0-40 17.9-40 40l0 32 296 0 24 0 0 48-24 0L24 192 0 192l0-48 24 0 56 0 0-32c0-48.6 39.4-88 88-88l24 0 0-24zM80 512L48 224l352 0L368 512 80 512zM253.3 335.6L224 272l-29.3 63.6-69.6 8.2 51.4 47.6-13.7 68.7L224 425.9l61.1 34.2-13.7-68.7 51.4-47.6-69.6-8.2z"/></svg>

<svg xmlns="http://www.w3.org/2000/svg" viewBox="0 0 448 512"><!--! Font Awesome Pro 6.4.2 by @fontawesome - https://fontawesome.com License - https://fontawesome.com/license (Commercial License) Copyright 2023 Fonticons, Inc. --><path d="M192 0h96c26.5 0 48 21.5 48 48s-21.5 48-48 48H192V72H168c-22.1 0-40 17.9-40 40v32H424h24v48H424 24 0V144H24 80V112c0-48.6 39.4-88 88-88h24V0zM80 512L48 224H400L368 512H80zM253.3 335.6L224 272l-29.3 63.6-69.6 8.2 51.4 47.6-13.7 68.7L224 425.9l61.1 34.2-13.7-68.7 51.4-47.6-69.6-8.2z"/></svg>
